X:75
T: Der heimkehrende Braeutigam
N: Q0102C
O: Mitteleuropa, Deutschland / Frankreich, Elsass
R: Ballade, Ehe - Geloebnis, Betrug
M: 6/8
L: 1/8
K: G
B | DGBDGB | BABA2
A | DFADFA | A2BG2
D | BBDGGD | G2Bd2
B | AAAd2d | B3-B2
D | BBDGGD | G2Bd2
B | AAAd2d | G3-G2

